source/img/inline/star.svg

<svg width="17" height="17" viewBox="0 0 17 17" fill="none" xmlns="http://www.w3.org/2000/svg">
<path d="M8.90625 2.5024L10.8189 6.17638L10.9915 6.50805L11.3603 6.56977L15.4455 7.25344L12.5424 10.2078L12.2803 10.4745L12.3355 10.8443L12.9477 14.9408L9.24089 13.0927L8.90625 12.9258L8.57161 13.0927L4.86477 14.9408L5.47695 10.8443L5.53222 10.4745L5.27013 10.2078L2.367 7.25344L6.45219 6.56977L6.82098 6.50805L6.99365 6.17638L8.90625 2.5024Z" fill="#83838E" stroke="#82828E" stroke-width="1.5"/>
</svg>

<svg width="17" height="17" fill="none" xmlns="http://www.w3.org/2000/svg"><path d="M8.906 2.502l1.913 3.674.172.332.37.062 4.084.683-2.903 2.955-.262.267.056.37.612 4.096-3.707-1.848-.335-.167-.334.167-3.707 1.848.612-4.097.055-.37-.262-.266-2.903-2.955 4.085-.683.369-.062.173-.332 1.912-3.674z" fill="#83838E" stroke="#82828E" stroke-width="1.5"/></svg>
